assets/icons/librescoot-ota-status-waiting-for-reboot.svg

<svg xmlns="http://www.w3.org/2000/svg" width="144" height="144" fill="none" viewBox="0 0 144 144"><g clip-path="url(#a)"><mask id="b" width="144" height="144" x="0" y="0" maskUnits="userSpaceOnUse" style="mask-type:alpha"><path fill="#d9d9d9" d="M0 0h144v144H0z"/></mask><g mask="url(#b)"><path fill="#fff" d="M67.1318 132.2c-13.7406-1.117-25.3027-6.758-34.6865-16.924q-14.0757-15.249-14.0757-36.1947 0-12.9027 5.9486-24.2973t16.673-18.6l7.2054 7.2054q-9.3837 5.5297-14.5784 15.1648-5.1945 9.6352-5.1945 20.5271 0 16.7568 11.0594 28.9887 11.0595 12.2325 27.6487 14.076zm10.054 0v-10.054c11.1712-1.34 20.3874-6.06 27.6482-14.159 7.262-8.0994 10.892-17.7346 10.892-28.9057q0-18.2649-12.651-30.9162-12.6513-12.6514-30.9162-12.6514h-3.3514l10.0541 10.0541-7.2054 7.2054-22.2865-22.2865L71.6561 8.2002l7.2054 7.2054-10.0541 10.0541h3.3514q22.454 0 38.0382 15.6675c10.389 10.4451 15.583 23.0964 15.583 37.9541 0 13.9639-4.664 26.0287-13.991 36.1947-9.328 10.166-20.8626 15.807-34.6032 16.924"/></g></g><defs><clipPath id="a"><path fill="#fff" d="M0 0h144v144H0z"/></clipPath></defs></svg>

<svg width="144" height="144" viewBox="0 0 144 144" fill="none" xmlns="http://www.w3.org/2000/svg">
  <g clip-path="url(#clip0_666_1219)">
    <mask id="mask0_666_1219" style="mask-type:alpha" maskUnits="userSpaceOnUse" x="0" y="0"
      width="144" height="144">
      <rect width="144" height="144" fill="#D9D9D9" />
    </mask>
    <g mask="url(#mask0_666_1219)">
      <path
        d="M67.1318 132.2C53.3912 131.083 41.8291 125.442 32.4453 115.276C23.0615 105.11 18.3696 93.0452 18.3696 79.0813C18.3696 70.4795 20.3525 62.3804 24.3182 54.784C28.284 47.1876 33.8417 40.9876 40.9912 36.184L48.1966 43.3894C41.9408 47.0759 37.0813 52.1308 33.6182 58.5542C30.1552 64.9777 28.4237 71.82 28.4237 79.0813C28.4237 90.2524 32.1101 99.9155 39.4831 108.07C46.8561 116.225 56.0723 120.917 67.1318 122.146V132.2ZM77.1858 132.2V122.146C88.357 120.806 97.5732 116.086 104.834 107.987C112.096 99.8876 115.726 90.2524 115.726 79.0813C115.726 66.9047 111.509 56.5993 103.075 48.1651C94.6408 39.7308 84.3354 35.5137 72.1588 35.5137H68.8074L78.8615 45.5678L71.6561 52.7732L49.3696 30.4867L71.6561 8.2002L78.8615 15.4056L68.8074 25.4597H72.1588C87.1282 25.4597 99.8074 30.6822 110.197 41.1272C120.586 51.5723 125.78 64.2236 125.78 79.0813C125.78 93.0452 121.116 105.11 111.789 115.276C102.461 125.442 90.9264 131.083 77.1858 132.2Z"
        fill="white" />
    </g>
  </g>
  <defs>
    <clipPath id="clip0_666_1219">
      <rect width="144" height="144" fill="white" />
    </clipPath>
  </defs>
</svg>
